.files/icons/devices/Display#1.svg

<svg fill="none" height="48" viewBox="0 0 48 48" width="48" xmlns="http://www.w3.org/2000/svg"><g clip-rule="evenodd" fill="#000" fill-rule="evenodd"><path d="m23 32c-.5523 0-1 .4477-1 1v7h-5.5c-.2761 0-.5.2239-.5.5v1c0 .2761.2239.5.5.5h6.5 2 6.5c.2761 0 .5-.2239.5-.5v-1c0-.2761-.2239-.5-.5-.5h-5.5v-7c0-.5523-.4477-1-1-1z" opacity=".3"/><path d="m4 11c0-.5523.44772-1 1-1h38c.5523 0 1 .4477 1 1v22c0 .5523-.4477 1-1 1h-38c-.55229 0-1-.4477-1-1zm4 6c0-.5523.44772-1 1-1h18c.5523 0 1 .4477 1 1s-.4477 1-1 1h-18c-.55228 0-1-.4477-1-1zm1 3c-.55228 0-1 .4477-1 1s.44772 1 1 1h6c.5523 0 1-.4477 1-1s-.4477-1-1-1z"/></g></svg>

<svg width="48" height="48" viewBox="0 0 48 48" fill="none" xmlns="http://www.w3.org/2000/svg">
<path opacity="0.3" fill-rule="evenodd" clip-rule="evenodd" d="M23 32C22.4477 32 22 32.4477 22 33V40H16.5C16.2239 40 16 40.2239 16 40.5V41.5C16 41.7761 16.2239 42 16.5 42H23H25H31.5C31.7761 42 32 41.7761 32 41.5V40.5C32 40.2239 31.7761 40 31.5 40H26V33C26 32.4477 25.5523 32 25 32H23Z" fill="black"/>
<path fill-rule="evenodd" clip-rule="evenodd" d="M4 11C4 10.4477 4.44772 10 5 10H43C43.5523 10 44 10.4477 44 11V33C44 33.5523 43.5523 34 43 34H5C4.44771 34 4 33.5523 4 33V11ZM8 17C8 16.4477 8.44772 16 9 16H27C27.5523 16 28 16.4477 28 17C28 17.5523 27.5523 18 27 18H9C8.44772 18 8 17.5523 8 17ZM9 20C8.44772 20 8 20.4477 8 21C8 21.5523 8.44772 22 9 22H15C15.5523 22 16 21.5523 16 21C16 20.4477 15.5523 20 15 20H9Z" fill="black"/>
</svg>
